Origami/16x16/apps/maxima.svg

<svg width="16" height="16" version="1.1" viewBox="0 0 16 16" xmlns="http://www.w3.org/2000/svg">
 <g transform="translate(0,-1036.3622)">
  <circle cx="8" cy="1044.362" r="8" style="fill:#404b8b"/>
  <path transform="translate(0,1036.3622)" d="m4.5 3.999656c-0.277 0-0.5 0.223-0.5 0.5s0.223 0.5 0.5 0.5c0.5 1.000344-0.5 4.000344-0.4296875 6.000344h-0.5703125c-0.277 0-0.5 0.223-0.5 0.5s0.223 0.5 0.5 0.5h2c0.277 0 0.5-0.223 0.5-0.5s-0.223-0.5-0.5-0.5h-0.4511719c-0.023819-0.05078-0.048511-0.09788-0.072266-0.162109-0.073981-0.3833-0.046811-1.9895725 0.044922-2.9866725 0.1651061-1.7943 0.2563018-1.9617185 0.4980468-1.8152185 0.166674 0.101 1.3760508 3.6004895 1.7734376 4.79399 0.05682 0.170709 0.1176216 0.207874 0.1760112 0.182552 0.9895002-1.5442061 1.5982593-3.2918707 2.5040203-4.924542 0.211494-0.2318999 0.236973 0.0770716 0.554344 2.0151716 0.208016 1.2703814 0.265141 2.6731294 0.205078 2.8968284h-0.232422c-0.277 0-0.5 0.223-0.5 0.5s0.223 0.5 0.5 0.5h2c0.277 0 0.5-0.223 0.5-0.5s-0.223-0.5-0.5-0.5h-0.412109c-0.011-0.02877-0.01942-0.03713-0.0332-0.07031-0.376413-1.119403-0.94359-5.3483465-0.808597-5.8753465 0.01064-0.022711 0.01023-0.034564 0.01758-0.054687h0.236328c0.277 0 0.5-0.223 0.5-0.5s-0.223-0.5-0.5-0.5h-2c-0.277 0-0.5 0.223-0.5 0.5s0.223 0.5 0.5 0.5h0.125c-0.0209644 0.1090496-0.0863677 0.2174776-0.1367208 0.3378901-0.4472415 0.7626819-1.1024598 2.0594747-1.546875 2.6624534-0.1793196-0.019-0.7751197-1.3473596-1.1640624-2.1038596-0.146779-0.3453-0.242942-0.4520625-0.3320313-0.6640625-0.0610836-0.0955123-0.0851754-0.1672293-0.0996094-0.2324219h0.1542969c0.277 0 0.5-0.223 0.5-0.5s-0.223-0.5-0.5-0.5z" style="fill:#f26265"/>
 </g>
</svg>

<svg xmlns="http://www.w3.org/2000/svg" width="16" height="16" version="1.1" viewBox="0 0 16 16">
 <g transform="translate(0,-1036.3622)">
  <circle style="fill:#404b8b" cx="8" cy="1044.362" r="8"/>
  <path style="fill:#f26265" d="m 4.5,3.999656 c -0.277,0 -0.5,0.223 -0.5,0.5 0,0.277 0.223,0.5 0.5,0.5 C 5,6 4,9 4.0703125,11 L 3.5,11 C 3.223,11 3,11.223 3,11.5 3,11.777 3.223,12 3.5,12 l 2,0 C 5.777,12 6,11.777 6,11.5 6,11.223 5.777,11 5.5,11 L 5.0488281,11 C 5.0250091,10.94922 5.0003171,10.90212 4.9765621,10.837891 4.9025811,10.454591 4.9297511,8.8483185 5.0214841,7.8512185 5.1865902,6.0569185 5.2777859,5.8895 5.5195309,6.036 c 0.166674,0.101 1.3760508,3.6004895 1.7734376,4.79399 0.05682,0.170709 0.1176216,0.207874 0.1760112,0.182552 C 8.4584799,9.4683359 9.067239,7.7206713 9.973,6.088 10.184494,5.8561001 10.209973,6.1650716 10.527344,8.1031716 10.73536,9.373553 10.792485,10.776301 10.732422,11 L 10.5,11 c -0.277,0 -0.5,0.223 -0.5,0.5 0,0.277 0.223,0.5 0.5,0.5 l 2,0 C 12.777,12 13,11.777 13,11.5 13,11.223 12.777,11 12.5,11 l -0.412109,0 c -0.011,-0.02877 -0.01942,-0.03713 -0.0332,-0.07031 -0.376413,-1.119403 -0.94359,-5.3483465 -0.808597,-5.8753465 0.01064,-0.022711 0.01023,-0.034564 0.01758,-0.054687 l 0.236328,0 c 0.277,0 0.5,-0.223 0.5,-0.5 0,-0.277 -0.223,-0.5 -0.5,-0.5 l -2,0 c -0.277,0 -0.5,0.223 -0.5,0.5 0,0.277 0.223,0.5 0.5,0.5 l 0.125,0 C 9.6040376,5.1087061 9.5386343,5.2171341 9.4882812,5.3375466 9.0410397,6.1002285 8.3858214,7.3970213 7.9414062,8 7.7620866,7.981 7.1662865,6.6526404 6.7773438,5.8961404 6.6305648,5.5508404 6.5344018,5.4440779 6.4453125,5.2320779 6.3842289,5.1365656 6.3601371,5.0648486 6.3457031,4.999656 l 0.1542969,0 c 0.277,0 0.5,-0.223 0.5,-0.5 0,-0.277 -0.223,-0.5 -0.5,-0.5 z" transform="translate(0,1036.3622)"/>
 </g>
</svg>
